X:1
T:Villancico De Navidad
%%score { 1 | 2 }
L:1/8
Q:3/8=75
M:6/8
K:F
V:1 treble nm="Ukulele" snm="Uk."
V:2 tab stafflines=4 strings=G4,C4,E4,A4 
V:1
"^Lento" C [FA]2 A [EG]2 | c [FA]2 A [EG]c | G [FA]2 [EG] [DF] (3F/4G/4F/4E/ | F[EGc]G E C2 | %4
 C [CEGB]2 B [EG]A | B [CFAA]2 A [DF]G | [FA] [CG]2 G [CE]2 | F [CFAA]2 C F2 | C [FA]2 A [EG]2 | %9
 c [CFAA]2 A [EG]c | G [CFAA]2 [EG] [DF] (3F/4G/4F/4E/ | F[EGc]G E C2 | C [CEGB]2 B [EG]A | %13
 [CB] [CFAA]2 A [DF]G | [FA] [EG]2 G [CEB]2 | F [CFAA]2 C A>G | F [EG]2 C [CEGB]>A | %17
 G [FA]2 F [^DAcc]>B | A[DG] AF [EG]A | F[EG] C2 [CFAA]>G | F [EG]2 C [CEGB]>A | %21
 G [CFAA]2 c [Bdf]>e | d[CFAc] BA(3([EG]/(A/)G/)(F | E) [CFAA]2 F [DEGB]>G | BG BG [DEGB]>G | %25
 B G2 g [Adf]e | f [Bdfg]2 g [=Bdg]g | G[CEGc] dc [DGB]>G | BG BG [DGB]>G | B [DG]2 g [Adf]e | %30
 f [Bdfb]2 b [Bdgg]f | e [FAcf]2 C F2 |[K:Db] C [FAc]2 c [FB]c | ^c [FA=c]2 c [Bdf]2 | %34
 f [=Ace]2 e [=EBd]2 | d [FAc]2 c FA | B[FBBd] CD [E=GB]c | d[C=Ge] D=E [FA=d]e | %38
 f[C=Ge] c=g [CF=d]_c |[K:F] f[CEGc] C2 [CFAA]>G | F [EG]2 C [CEGB]>A | G [CFAA]2 F [^DAcc]>B | %42
 A[DG] AF [EG]A | F[EG] CC [CFAA]>G | F [EG]2 C [CEGB]>A | G [CFA]2 c [Bdf]>e | %46
 d[CFAc] BA(3([EG]/(A/)G/)(F | E) [FA]2 C F2 | C [FA]2 A [EG]2 | c [CFAA]2 A [EG]c | %50
 G [CFAA]2 [EG] [DF] (3F/4G/4F/4E/ | F[EGc]G E C2 | C [GB]2 B [EG]A | B [FA]2 A [DF]G | %54
 A [EG]2 G [CEB]2 | GCE A [CFAA]2 |] %56
V:2
 !3!C [!2!F!1!A]2 !1!A [!2!E!4!G]2 | !1!c [!2!F!1!A]2 !1!A [!2!E!4!G]!1!c | %2
 !4!G [!2!F!1!A]2 [!2!E!4!G] [!3!D!2!F] (3!2!F/4!2!G/4!2!F/4!2!E/ | %3
 !2!F[!3!E!2!G!1!c]!4!G !2!E !3!C2 | !3!C [!3!C!2!E!4!G!1!B]2 !1!B [!2!E!4!G]!1!A | %5
 !4!B [!3!C!2!F!4!A!1!A]2 !1!A [!3!D!2!F]!4!G | [!2!F!1!A] [!3!C!4!G]2 !4!G [!3!C!2!E]2 | %7
 !2!F [!3!C!2!F!4!A!1!A]2 !3!C !2!F2 | !3!C [!2!F!1!A]2 !1!A [!2!E!4!G]2 | %9
 !1!c [!3!C!2!F!4!A!1!A]2 !1!A [!2!E!4!G]!1!c | %10
 !4!G [!3!C!2!F!4!A!1!A]2 [!2!E!4!G] [!3!D!2!F] (3!2!F/4!2!G/4!2!F/4!2!E/ | %11
 !2!F[!3!E!2!G!1!c]!4!G !2!E !3!C2 | !3!C [!3!C!2!E!4!G!1!B]2 !1!B [!2!E!4!G]!1!A | %13
 [!3!C!1!B] [!3!C!2!F!4!A!1!A]2 !1!A [!3!D!2!F]!4!G | [!2!F!1!A] [!2!E!4!G]2 !4!G [!3!C!2!E!1!B]2 | %15
 !2!F [!3!C!2!F!4!A!1!A]2 !3!C !1!A>!4!G | !2!F [!2!E!4!G]2 !3!C [!3!C!2!E!4!G!1!B]>!1!A | %17
 !4!G [!2!F!1!A]2 !2!F [!3!^D!2!A!1!c!4!c]>!4!B | !2!A[!3!D!4!G] !1!A!2!F [!2!E!4!G]!1!A | %19
 !3!F[!2!E!4!G] !3!C2 [!3!C!2!F!4!A!1!A]>!4!G | !2!F [!2!E!4!G]2 !3!C [!3!C!2!E!4!G!1!B]>!1!A | %21
 !4!G [!3!C!2!F!4!A!1!A]2 !1!c [!2!B!4!d!1!f]>!1!e | %22
 !4!d[!3!C!2!F!4!A!1!c] !4!B!1!A(3([!2!E!4!G]/(!4!A/)!4!G/)(!2!F | %23
 !2!E) [!3!C!2!F!4!A!1!A]2 !2!F [!3!D!2!E!4!G!1!B]>!4!G | %24
 !1!B!4!G !1!B!4!G [!3!D!2!E!4!G!1!B]>!4!G | !1!B !4!G2 !1!g [!2!A!4!d!1!f]!1!e | %26
 !1!f [!3!B!2!d!4!f!1!g]2 !1!g [!3!=B!2!d!4!g]!1!g | %27
 !4!G[!3!C!2!E!4!G!1!c] !4!d!1!c [!3!D!4!G!1!_B]>!4!G | !1!_B!4!G !1!B!4!G [!3!D!4!G!1!B]>!4!G | %29
 !1!_B [!3!D!4!G]2 !1!g [!2!A!4!d!1!=f]!1!e | %30
 !1!f [!3!B!2!d!4!f!1!b]2 !1!b [!3!B!2!d!1!g!4!g]!4!f | !2!e [!3!F!2!A!4!c!1!f]2 !3!C !2!F2 | %32
[K:Db] !3!C [!3!F!2!A!1!c]2 !1!c [!3!F!2!B]!1!c | !4!^c [!3!F!2!A!1!=c]2 !1!c [!3!B!2!d!1!f]2 | %34
 !1!f [!3!=A!2!c!1!e]2 !1!e [!3!=E!2!B!1!d]2 | !1!d [!3!F!2!A!1!c]2 !1!c !3!F!2!A | %36
 !1!B[!3!F!4!B!2!B!1!d] !3!C!3!D [!3!E!2!=G!1!B]!1!c | %37
 !1!d[!3!C!2!=G!1!e] !3!D!2!=E [!3!F!2!A!1!=d]!1!e | %38
 !1!f[!3!C!2!=G!1!e] !4!c!1!=g [!3!C!2!F!1!=d]!4!_c | %39
[K:F] !1!f[!3!C!2!E!4!G!1!c] !3!C2 [!3!C!2!F!1!A!4!A]>!4!G | %40
 !2!F [!2!E!4!G]2 !3!C [!3!C!2!E!4!G!1!B]>!1!A | %41
 !4!G [!3!C!2!F!1!A!4!A]2 !2!F [!3!^D!2!A!1!c!4!c]>!4!B | !2!A[!3!D!4!G] !1!A!2!F [!2!E!4!G]!1!A | %43
 !3!F[!2!E!4!G] !3!C!3!C [!3!C!2!F!4!A!1!A]>!4!G | %44
 !2!=F [!2!E!4!G]2 !3!C [!3!C!2!E!4!G!1!_B]>!1!A | %45
 !4!G [!3!C!2!=F!1!A]2 !1!c [!2!_B!4!d!1!=f]>!1!e | %46
 !4!d[!3!C!2!F!4!A!1!c] !4!B!1!A(3([!2!E!4!G]/(!4!A/)!4!G/)(!2!F | !2!E) [!2!F!1!A]2 !3!C !2!F2 | %48
 !3!C [!2!=F!1!A]2 !1!A [!2!E!4!G]2 | !1!c [!3!C!2!=F!4!A!1!A]2 !1!A [!2!E!4!G]!1!c | %50
 !4!G [!3!C!2!=F!4!A!1!A]2 [!2!E!4!G] [!3!D!2!F] (3!2!F/4!2!G/4!2!F/4!2!E/ | %51
 !2!F[!3!E!2!G!1!c]!4!G !2!E !3!C2 | !3!C [!4!G!1!_B]2 !1!B [!2!E!4!G]!1!A | %53
 !4!_B [!2!=F!1!A]2 !1!A [!3!D!2!F]!4!G | !1!A [!2!E!4!G]2 !4!G [!3!C!2!E!1!B]2 | %55
 !4!G!3!C!2!E !1!A [!3!C!2!F!1!A!4!A]2 |] %56

